flaticon/transport/alloy-wheel-5.svg

<svg xmlns="http://www.w3.org/2000/svg" width="32" height="32" viewBox="0 0 24 24">
    <path d="M 17.679688 1.078125 C 16.800781 0.359375 15.71875 0 14.558594 0 L 9.441406 0 C 8.28125 0 7.199219 0.359375 6.320312 1.078125 C 4.519531 2.480469 2.398438 5.519531 2.398438 12 C 2.398438 18.480469 4.519531 21.519531 6.320312 22.921875 C 7.199219 23.640625 8.28125 24 9.441406 24 L 14.558594 24 C 15.71875 24 16.800781 23.640625 17.679688 22.921875 C 19.480469 21.519531 21.601562 18.480469 21.601562 12 C 21.601562 5.519531 19.480469 2.480469 17.679688 1.078125 Z M 9.441406 23.199219 C 8.480469 23.199219 7.519531 22.878906 6.800781 22.320312 C 5.160156 21 3.199219 18.160156 3.199219 12 C 3.199219 5.839844 5.160156 3 6.800781 1.679688 C 7.519531 1.121094 8.480469 0.800781 9.441406 0.800781 L 11.839844 0.800781 C 5.679688 7.519531 5.679688 16.480469 11.839844 23.199219 Z M 17.199219 22.320312 C 16.480469 22.878906 15.519531 23.199219 14.558594 23.199219 L 12.921875 23.199219 C 6.320312 16.492188 6.320312 7.507812 12.921875 0.800781 L 14.558594 0.800781 C 15.519531 0.800781 16.480469 1.121094 17.199219 1.679688 C 18.839844 3 20.800781 5.839844 20.800781 12 C 20.800781 18.160156 18.839844 21 17.199219 22.320312 Z M 17.199219 22.320312"/>
    <path d="M 14.800781 4 C 12.800781 4 11.199219 7.320312 11.199219 11.601562 C 11.199219 15.878906 12.800781 19.199219 14.800781 19.199219 C 16.800781 19.199219 18.398438 15.878906 18.398438 11.601562 C 18.398438 7.320312 16.800781 4 14.800781 4 Z M 14.800781 18.398438 C 13.441406 18.398438 12 15.679688 12 11.601562 C 12 7.519531 13.441406 4.800781 14.800781 4.800781 C 16.160156 4.800781 17.601562 7.519531 17.601562 11.601562 C 17.601562 15.679688 16.160156 18.398438 14.800781 18.398438 Z M 14.800781 18.398438"/>
    <path d="M 15.039062 7.601562 C 14.839844 7.480469 14.601562 7.519531 14.480469 7.679688 C 12.761719 10.078125 12.761719 13 14.480469 15.441406 C 14.558594 15.558594 14.679688 15.601562 14.800781 15.601562 C 14.878906 15.601562 14.960938 15.558594 15.039062 15.519531 C 15.199219 15.398438 15.238281 15.160156 15.121094 14.960938 C 13.601562 12.800781 13.601562 10.28125 15.121094 8.160156 C 15.238281 7.960938 15.199219 7.71875 15.039062 7.601562 Z M 15.039062 7.601562"/>
</svg>

<svg xmlns="http://www.w3.org/2000/svg" width="32" height="32" viewBox="0 0 24 24">
    <path d="M17.68 1.078C16.8.36 15.719 0 14.559 0H9.44C8.281 0 7.2.36 6.321 1.078 4.52 2.48 2.397 5.52 2.397 12S4.52 21.52 6.32 22.922C7.2 23.64 8.281 24 9.441 24h5.118c1.16 0 2.242-.36 3.12-1.078C19.48 21.52 21.603 18.48 21.603 12S19.48 2.48 17.68 1.078zM9.44 23.2c-.96 0-1.921-.32-2.64-.879C5.16 21 3.199 18.16 3.199 12S5.16 3 6.801 1.68C7.52 1.12 8.48.8 9.44.8h2.399c-6.16 6.72-6.16 15.68 0 22.4zm7.758-.879c-.719.559-1.68.88-2.64.88h-1.637C6.32 16.491 6.32 7.507 12.922.8h1.637c.96 0 1.921.321 2.64.88C18.84 3 20.801 5.84 20.801 12s-1.961 9-3.602 10.32zm0 0"/>
    <path d="M14.8 4c-2 0-3.6 3.32-3.6 7.602 0 4.277 1.6 7.597 3.6 7.597s3.598-3.32 3.598-7.597C18.398 7.32 16.801 4 14.801 4zm0 14.398c-1.359 0-2.8-2.718-2.8-6.796C12 7.52 13.441 4.8 14.8 4.8c1.36 0 2.802 2.719 2.802 6.8 0 4.079-1.442 6.797-2.801 6.797zm0 0"/>
    <path d="M15.04 7.602c-.2-.122-.438-.082-.56.078-1.718 2.398-1.718 5.32 0 7.761.079.118.2.16.32.16.079 0 .16-.042.24-.081.16-.122.198-.36.081-.56-1.52-2.16-1.52-4.679 0-6.8.117-.2.078-.441-.082-.558zm0 0"/>
</svg>
